X: 1021
T: A Theater Tune.
%R: jig, waltz
B: Henry Playford "Apollo's Banquet", London 1687 (5th Edition)
F: https://archive.org/details/apollosbanquetco01rugg
Z: 2017 John Chambers <jc:trillian.mit.edu>
M: 6/4
L: 1/4
K: Bb
% - - - - - - - - - -
f |\
d>cB B2A | B2F D>EF | GAB Gc2 | A3- A>cd |\
e2f d2g | d>=ef =e>fg | a>gf f2=e | f3- f2 :|
|: c/B/ |\
A>Bc F2B | B2A G2d | e>dc g>ab | a3 f2e |\
dgd e2d | cf2 c>BA | GAB B2A | B3- B2 |]
% - - - - - - - - - -

%%sep 1 1 500
%%sep 1 1 500

